!!!!SEGMENT: pl-kk--kk-i-1--035_anonim--hortus-conclusus.krn
!!!cenid: 15xx:748
!!!COM: Anonim
!!!COM-rismID:
!!!CDT:
!!!CNT:
!!!OTL: Hortus conclusus
!!!PDT:
!!!AGN:
!!!SMS-siglum: PL-Kk
!!!SMS-shelfmark: Kk.I.1
!!!SMS-shelfwork: 035 W
!!!SMS-variant:
!!!SMS-altvar:
!!!NIFC-rismSourceID: 300257989
!!!NIFC-islandoraID: pl-kk:1
!!!URL-pdf-islandora: https://repozytorium.nifc.pl/islandora/object/pl-kk%3A1/datastream/PDF/view
!!!URL-scan: https://polish.musicsources.pl/pl/lokalizacje/galeria/rekopisy/5736 @EN{Scan on Polish Music Herritage in Open Access Website} @PL{Skany w portalu Dziedzictwo Muzyki Polskiej w otwartym dostępie}
!!!ONB-nifc: UWAGA: Cantus (s. 127r-129r, skan 0129-0131), Altus (s. 122v-124r, skan 0316-0317), Tenor (s. 107v-108v, skan 0498-0499), Bassus (s. 115r-117r, skan 0677-0679).
!!!AIN: 1 alto 1 bass 1 soprn 1 tenor
!!!key: G:mix
**kern	**text	**kern	**text	**kern	**text	**kern	**text
*part4	*part4	*part3	*part3	*part2	*part2	*part1	*part1
*staff4	*staff4	*staff3	*staff3	*staff2	*staff2	*staff1	*staff1
*I"BASSVS	*	*I"TENOR	*	*I"ALTVS	*	*I"CANTVS	*
*I'B	*	*I'T	*	*I'A	*	*I'S	*
*Ibass	*	*Itenor	*	*Ialto	*	*Isoprn	*
*ICvox	*	*ICvox	*	*ICvox	*	*ICvox	*
*clefF4	*	*clefC4	*	*clefC4	*	*clefC3	*
*k[]	*	*k[]	*	*k[]	*	*k[]	*
*G:mix	*	*G:mix	*	*G:mix	*	*G:mix	*
*M2/1	*	*M2/1	*	*M2/1	*	*M2/1	*
*met(C)	*	*met(C)	*	*met(C)	*	*met(C)	*
=1-	=1-	=1-	=1-	=1-	=1-	=1-	=1-
*lig	*	*lig	*	*	*	*lig	*
1D	Or-	1D	Or-	0A	Or-	1d	Or-
1AA	.	1C	.	.	.	1e	.
*Xlig	*	*Xlig	*	*	*	*Xlig	*
=2-	=2-	=2-	=2-	=2-	=2-	=2-	=2-
*	*	*lig	*	*	*	*	*
2D\	.	1D	.	0A	-tus	4f\	.
.	.	.	.	.	.	4e\	.
2.F\	.	.	.	.	.	4d/	.
.	.	.	.	.	.	4c/	.
.	.	1F	.	.	.	4d\	.
4E/	.	.	.	.	.	4e\	.
1D\	.	.	.	.	.	4f\	.
.	.	.	.	.	.	4d\	.
*	*	*Xlig	*	*	*	*	*
=3-	=3-	=3-	=3-	=3-	=3-	=3-	=3-
.	.	1E	.	2r	.	4e\	.
.	.	.	.	.	.	4f\	.
*	*	*	*	*	*ij	*	*
2C/	.	.	.	2c\	Or-	1g	.
*	*	*lig	*	*	*	*	*
1D	-tus	1D	-tus	1A	-tus	.	.
*	*	*	*	*	*Xij	*	*
.	.	.	.	.	.	2f\	-tus
=4-	=4-	=4-	=4-	=4-	=4-	=4-	=4-
*	*	*	*	*	*	*custos:c	*
1AA	.	1C	.	2.c\	con-	2e\	.
*	*	*	*	*	*	*lig	*
!	!	!	!	!	!	!LO:PB:g=original	!
.	.	.	.	.	.	1c	con-
.	.	.	.	4B/	.	.	.
*	*	*Xlig	*	*	*	*	*
*	*	*lig	*	*	*	*	*
2r	.	1C	con-	2A/	.	.	.
*lig	*	*	*	*	*	*	*
1C/	con-	.	.	2G/	.	1e\	.
*	*	*	*	*	*	*Xlig	*
=5-	=5-	=5-	=5-	=5-	=5-	=5-	=5-
.	.	1E	.	2c\	.	.	.
*custos:G	*	*	*	*	*	*	*
1E	.	.	.	4B/	-clu-	2.g\	-clu-
.	.	.	.	4A/	.	.	.
*	*	*Xlig	*	*	*	*	*
*	*	*lig	*	*	*	*	*
.	.	1G	-clu-	1B	.	.	.
.	.	.	.	.	.	4f\	.
*Xlig	*	*	*	*	*	*	*
!LO:PB:g=original	!	!	!	!	!	!	!
1G\	-clu-	.	.	.	.	4e\	.
.	.	.	.	.	.	4d\	.
=6-	=6-	=6-	=6-	=6-	=6-	=6-	=6-
.	.	1E	.	1G	.	1c	-ſus
4F\	.	.	.	.	.	.	.
4E\	.	.	.	.	.	.	.
*	*	*Xlig	*	*	*	*	*
*	*	*lig	*	*	*	*	*
*	*	*	*	*custos:B	*	*	*
1F	.	1D	.	1A	.	0d	.
!	!	!	!	!LO:LB:g=original	!	!	!
=7-	=7-	=7-	=7-	=7-	=7-	=7-	=7-
2G\	-ſus	1G	.	1B	-ſus	.	.
*	*ij	*	*	*	*	*	*
2GG/	or-	.	.	.	.	.	.
*	*	*Xlig	*	*	*	*	*
*	*	*lig	*	*	*	*	*
2C/	-tus	1G	-ſus	2r	.	2r	.
*	*	*	*	*	*	*	*ij
2BB/	con-	.	.	2B/	con-	2d/	con-
=8-	=8-	=8-	=8-	=8-	=8-	=8-	=8-
2.AA/	-clu-	1A	.	1.c	-clu-	2c/	.
.	.	.	.	.	.	1e	-clu-
4BB/	.	.	.	.	.	.	.
*	*	*Xlig	*	*	*	*	*
1C	.	1G	.	.	.	.	.
.	.	.	.	4B/	.	4d/	.
.	.	.	.	4A/	.	4c/	.
=9-	=9-	=9-	=9-	=9-	=9-	=9-	=9-
*	*	*lig	*	*	*	*	*
1GG	-ſus	1G	et	2B\	-ſus	2.d\	-ſus
*	*Xij	*	*	*	*	*	*
.	.	.	.	1d	et	.	.
.	.	.	.	.	.	4e\	con-
*	*	*custos:E	*	*	*	*	*
2r	.	1F	.	.	.	2.f\	-clu-
2D/	et	.	.	2A/	fons	.	.
.	.	.	.	.	.	8e/L	.
.	.	.	.	.	.	8d/J	.
*	*	*Xlig	*	*	*	*	*
!	!	!LO:LB:g=original	!	!	!	!	!
=10-	=10-	=10-	=10-	=10-	=10-	=10-	=10-
*	*	*lig	*	*	*	*	*
2AA/	fons	1E	.	2c\	si-	2c/	-ſus
*	*	*	*	*	*	*	*Xij
2C/	.	.	.	2G/	-gna-	1g	et
*lig	*	*	*	*	*	*	*
1GG	si-	1G	.	2d\	-tus	.	.
*	*	*	*	*	*ij	*	*
*	*	*	*	*	*	*custos:f	*
.	.	.	.	2d\	et	2d/	fons
*	*	*Xlig	*	*	*	*	*
!	!	!	!	!	!	!LO:LB:g=original	!
=11-	=11-	=11-	=11-	=11-	=11-	=11-	=11-
1AA	.	1C	fons	2A/	fons	2f\	Si-
.	.	.	.	2c\	si-	2c/	-gna-
*Xlig	*	*lig	*	*	*	*	*
4GG/	-gna-	1D	.	2G/	-gna-	2g\	-tus
4AA/	-tus	.	.	.	.	.	.
*	*	*	*	*	*	*	*ij
4BB/	.	.	.	2d\	-tus	2g\	et
*	*	*	*	*	*Xij	*	*
*custos:D	*	*	*	*	*	*	*
4C/	.	.	.	.	.	.	.
!LO:LB:g=original	!	!	!	!	!	!	!
=12-	=12-	=12-	=12-	=12-	=12-	=12-	=12-
1D	.	1F	.	2r	.	1d	fons
.	.	.	.	1d	et	.	.
*	*	*Xlig	*	*	*	*	*
*	*	*lig	*	*	*	*	*
2r	.	1D	si-	.	.	1f	Si-
*	*ij	*	*	*	*	*	*
2D/	et	.	.	1A\	.	.	.
=13-	=13-	=13-	=13-	=13-	=13-	=13-	=13-
1AA	fons	1E	.	.	.	1c	-gna-
.	.	.	.	1c	fons	.	.
*	*	*Xlig	*	*	*	*	*
*	*	*lig	*	*	*	*	*
1C	si-	1E	-gna-	.	.	2g\	-tus
*	*	*	*	*	*	*	*Xij
*	*	*	*	*custos:d	*	*	*
.	.	.	.	2G/	si-	1g\	et
!	!	!	!	!LO:LB:g=original	!	!	!
=14-	=14-	=14-	=14-	=14-	=14-	=14-	=14-
1GG	-gna-	1G	.	2d\	-gna-	.	.
.	.	.	.	2d\	-tus	2d/	fons
*	*	*Xlig	*	*	*	*	*
*	*	*lig	*	*	*ij	*	*
2D/	.	1A	.	2A/	si-	2f\	Si-
4AA/	-tus	.	.	1c\	-gna-	4c/	-gna-
*	*Xij	*	*	*	*	*	*
4BB/	.	.	.	.	.	4d/	.
=15-	=15-	=15-	=15-	=15-	=15-	=15-	=15-
4C/	.	1G	.	.	.	4e\	.
4D/	.	.	.	.	.	4f\	.
2E/	.	.	.	2G/	.	1g	.
*	*	*Xlig	*	*	*	*	*
2D/	et	1A	.	2d\	-tus	.	.
2D/	.	.	.	2D/	et	2f\	.
=16-	=16-	=16-	=16-	=16-	=16-	=16-	=16-
1AA	fons	0c	.	1A	fons	1.e	-tus
1C	si-	.	.	2G/	si-	.	.
.	.	.	.	2.A/	-gna-	4d/	.
.	.	.	.	.	.	4c/	.
=17-	=17-	=17-	=17-	=17-	=17-	=17-	=17-
*	*	*	*	*	*	*	*ij
*	*	*	*	*	*	*custos:d	*
1GG	-gna-	1B	.	.	.	1d	et
.	.	.	.	4G/	.	.	.
.	.	.	.	1G	.	.	.
!	!	!	!	!	!	!LO:LB:g=original	!
1D	-tus	1A	.	.	.	1d	fons
.	.	.	.	2F/	.	.	.
=18-	=18-	=18-	=18-	=18-	=18-	=18-	=18-
2r	.	1G	.	2G/	-tus	2.d/	Si-
2G\	et	.	.	1d	fons	.	.
.	.	.	.	.	.	4e\	.
*	*	*lig	*	*	*	*	*
*custos:F	*	*	*	*	*	*	*
2D/	fons	1A	.	.	.	2f\	.
!LO:LB:g=original	!	!	!	!	!	!	!
2F\	si-	.	.	2A/	si-	4c/	-gna-
.	.	.	.	.	.	4d/	.
=19-	=19-	=19-	=19-	=19-	=19-	=19-	=19-
*lig	*	*	*	*	*	*	*
1C	-gna-	1E	.	2c\	.	4e\	.
.	.	.	.	.	.	4f\	.
.	.	.	.	2G/	.	1g	.
*	*	*Xlig	*	*	*	*	*
1D	.	1D	.	2.d\	-gna-	.	.
.	.	.	.	.	.	2f\	-tus
*	*	*	*	*	*	*	*Xij
*	*	*	*	*custos:B	*	*	*
.	.	.	.	4c\	.	.	.
*Xlig	*	*	*	*	*	*	*
!	!	!	!	!LO:LB:g=original	!	!	!
=20-	=20-	=20-	=20-	=20-	=20-	=20-	=20-
*	*	*lig	*	*	*	*	*
2GG/	-tus	1G	.	1B	-tus	4g\	et
*	*	*	*	*	*Xij	*	*
.	.	.	.	.	.	4g\	.
*	*ij	*	*	*	*	*	*
2G\	et	.	.	.	.	2d/	fons
2D/	fons	1A	.	2d\	et	2f\	Si-
2F\	si-	.	.	2A/	.	2c/	-gna-
*	*	*Xlig	*	*	*	*	*
=21-	=21-	=21-	=21-	=21-	=21-	=21-	=21-
*	*	*custos:C	*	*	*	*	*
1C	-gna-	1G	-tus	1c	fons	2g\	-tus
.	.	.	.	.	.	2g\	e-
!	!	!LO:LB:g=original	!	!	!	!	!
2G\	-tus	1C	e-	2.c\	.	2e/	-miſ-
*	*Xij	*	*	*	*	*	*
*	*	*	*	*	*	*custos:d	*
1G\	e-	.	.	.	.	2e/	-ſi-
.	.	.	.	4B\	ſi-	.	.
!	!	!	!	!	!	!LO:LB:g=original	!
=22-	=22-	=22-	=22-	=22-	=22-	=22-	=22-
.	.	1D	-miſ-	1A	-gna-	2.d/	-o-
2F\	-miſ-	.	.	.	.	.	.
.	.	.	.	.	.	4c/	.
2E\	-ſi-	1E	-ſi-	1G	-tus	4B/	.
.	.	.	.	.	.	2c/	-nes
2G\	-o-	.	.	.	.	.	.
.	.	.	.	.	.	4B/	tu-
=23-	=23-	=23-	=23-	=23-	=23-	=23-	=23-
2C,</	-nes	1G	-o-	1E	.	2c/	-ę
*	*ij	*	*	*	*	*	*ij
1C	e-	.	.	.	.	2c/	e-
*	*	*lig	*	*	*	*	*
.	.	1G	-nes	1r	.	2d/	-miſ-
2BB/	-miſ-	.	.	.	.	2d/	-ſi-
=24-	=24-	=24-	=24-	=24-	=24-	=24-	=24-
2AA/	-ſi-	1E	.	2r	.	2e\	-o-
2C/	-o-	.	.	1c	e-	2c/	-nes
*	*	*Xlig	*	*	*	*	*
1GG	-nes	1D	.	.	.	1d	tu-
*	*Xij	*	*	*	*	*	*
.	.	.	.	2B\	-miſ-	.	.
=25-	=25-	=25-	=25-	=25-	=25-	=25-	=25-
*	*	*lig	*	*	*	*	*
2r	.	1G	tu-	2G/	-ſi-	0d	-ę
*	*	*	*	*	*	*	*Xij
1G	e-	.	.	2B/	-o-	.	.
.	.	1A	.	2A/	-nes	.	.
*	*	*	*	*	*ij	*	*
*custos:E	*	*	*	*	*	*	*
2F\	-mis-	.	.	2d\	e-	.	.
*	*	*Xlig	*	*	*	*	*
!LO:LB:g=original	!	!	!	!	!	!	!
=26-	=26-	=26-	=26-	=26-	=26-	=26-	=26-
2E\	-ſi-	1G	.	2c\	-miſ-	2r	.
2G\	-o-	.	.	2B\	-ſi-	1g	e-
*	*	*lig	*	*	*	*	*
1C	-nes	1E	.	1c	-o-	.	.
.	.	.	.	.	.	2e\	-miſ-
=27-	=27-	=27-	=27-	=27-	=27-	=27-	=27-
*	*	*	*	*custos:A	*	*	*
2.D/	tu-	1F	.	1A	-nes	2d/	-ſi-
.	.	.	.	.	.	2f\	-o-
4E\	.	.	.	.	.	.	.
*	*	*Xlig	*	*	*Xij	*	*
*	*	*lig	*	*	*	*	*
*	*	*	*	*	*	*custos:c	*
!	!	!	!	!LO:PB:g=original	!	!LO:TX:t=P:problem=wysokość poprawiona	!
4F\	.	1F	-e	2.A/	tu-	2c/	-nes
4G\	.	.	.	.	.	.	.
!	!	!	!	!	!	!LO:PB:g=original	!
1A\	.	.	.	.	.	4c/	tu-
.	.	.	.	4B/	-e	4d/	.
=28-	=28-	=28-	=28-	=28-	=28-	=28-	=28-
.	.	1E	.	2c\	.	4e\	.
.	.	.	.	.	.	4f\	.
4G\	.	.	.	4B/	.	1g	.
4F\	.	.	.	4A/	.	.	.
*	*	*Xlig	*	*	*	*	*
2E/	.	1G	pa-	2B/	.	.	.
2C/	-e	.	.	1c\	.	4f\	.
.	.	.	.	.	.	4e\	.
=29-	=29-	=29-	=29-	=29-	=29-	=29-	=29-
*	*	*lig	*	*	*	*	*
1G	.	1G	-ra-	.	.	1d	.
.	.	.	.	2B/	.	.	.
2r	.	1A	.	2c\	e	2c/	-ę
2D/	pa-	.	.	2F/	pa-	2f\	pa-
*	*	*Xlig	*	*	*	*	*
=30-	=30-	=30-	=30-	=30-	=30-	=30-	=30-
*	*	*lig	*	*	*	*	*
2C/	-ra-	1c	-dij-	2G/	-ra-	2.e\	-ra-
1AA	-dij-	.	.	1A	-dij-	.	.
.	.	.	.	.	.	4d/	.
.	.	1A	.	.	.	2c/	.
1C/	.	.	.	4G/	.	1e\	-dij-
.	.	.	.	4F/	.	.	.
*	*	*Xlig	*	*	*	*	*
=31-	=31-	=31-	=31-	=31-	=31-	=31-	=31-
*	*	*lig	*	*	*	*	*
.	.	1G	.	4E/	.	.	.
.	.	.	.	4F/	.	.	.
2BB/	.	.	.	2G/	.	2d/	.
*	*	*custos:A	*	*	*	*	*
2AA/	-sus	1A	.	2E/	-ſus	2c/	.
*custos:C	*	*	*	*	*	*	*
2D/	.	.	.	2F/	pa-	2d/	.
*	*	*Xlig	*	*	*	*	*
!LO:PB:g=original	!	!LO:LB:g=original	!	!	!	!	!
=32-	=32-	=32-	=32-	=32-	=32-	=32-	=32-
*	*ij	*lig	*	*	*	*	*
2C/	pa-	1A	-ſus	2E/	.	2e\	.
*	*	*	*	*custos:G	*	*	*
2D/	-ra-	.	.	2D/	-ra-	2f\	.
!	!	!	!	!LO:LB:g=original	!	!	!
2.E/	-dij-	1G	.	2G/	-dij-	2.g\	.
.	.	.	.	1C/	.	.	.
*	*	*	*	*	*	*custos:e	*
4D/	.	.	.	.	.	4f\	.
*	*	*Xlig	*	*	*	*	*
!	!	!	!	!	!	!LO:LB:g=original	!
=33-	=33-	=33-	=33-	=33-	=33-	=33-	=33-
*	*	*lig	*	*	*	*	*
2C/	.	1G	o	.	.	2e\	.
2BB/	.	.	.	2D/	.	2.d/	.
2AA/	.	1A	.	2E/	.	.	.
.	.	.	.	.	.	4c/	.
2FF/	.	.	.	2F/	.	1c\	.
*	*	*Xlig	*	*	*	*	*
=34-	=34-	=34-	=34-	=34-	=34-	=34-	=34-
1GG	-sus	1G	.	1D	.	.	.
.	.	.	.	.	.	2B/	.
*	*Xij	*lig	*	*	*	*	*
1C	o	1G	Ma-	2C/	-ſus	2.c/	.
.	.	.	.	2E/	.	.	.
.	.	.	.	.	.	4d/	-ſus
=35-	=35-	=35-	=35-	=35-	=35-	=35-	=35-
1AA	Ma-	1c	.	2.A/	o	0e	.
.	.	.	.	8G/L	Ma-	.	.
.	.	.	.	8F/J	.	.	.
*	*	*Xlig	*	*	*	*	*
*	*	*lig	*	*	*	*	*
0C	-ri-	1G	.	2E/	.	.	.
.	.	.	.	2.e\	.	.	.
=36-	=36-	=36-	=36-	=36-	=36-	=36-	=36-
.	.	1c	.	.	.	0g	o
.	.	.	.	4d\	.	.	.
.	.	.	.	1c	.	.	.
*	*	*Xlig	*	*	*	*	*
*	*	*lig	*	*	*	*	*
1GG	-a	1d	.	.	.	.	.
.	.	.	.	2B\	.	.	.
=37-	=37-	=37-	=37-	=37-	=37-	=37-	=37-
1.C	o	1c	.	1c	-ri-	1e	Ma-
*	*	*Xlig	*	*	*	*	*
.	.	1c	.	0G	-a	0g	-ri-
2D/	Ma-	.	.	.	.	.	.
=38-	=38-	=38-	=38-	=38-	=38-	=38-	=38-
1E	-ri-	1B	.	.	.	.	.
0F	-a	1A	-ri-	2r	.	2c/	-a
.	.	.	.	2c\	o	1f\	.
=39-	=39-	=39-	=39-	=39-	=39-	=39-	=39-
*	*	*lig	*	*	*	*	*
*	*	*	*	*custos:c	*	*	*
.	.	1A	-a	2A/	Ma-	.	.
!	!	!	!	!LO:LB:g=original	!	!	!
.	.	.	.	1c	-ri-	4e\	.
.	.	.	.	.	.	4d\	.
2C/	.	1G	.	.	.	1e	.
*custos:G	*	*	*	*	*	*	*
2C/	ma-	.	.	4B\	.	.	.
.	.	.	.	4A\	.	.	.
*	*	*Xlig	*	*	*	*	*
!LO:LB:g=original	!	!	!	!	!	!	!
=40-	=40-	=40-	=40-	=40-	=40-	=40-	=40-
*lig	*	*	*	*	*	*	*
1G	-nus	1G	ma-	1B	.	1d	.
*	*	*lig	*	*	*	*	*
1A	.	1c	.	2A/	-a	2r	.
*	*	*	*	*	*	*custos:g	*
.	.	.	.	1c\	.	2c/	ma-
*Xlig	*	*	*	*	*	*	*
!	!	!	!	!	!	!LO:LB:g=original	!
=41-	=41-	=41-	=41-	=41-	=41-	=41-	=41-
1G	.	1d	.	.	.	2.g\	-nus
.	.	.	.	2B\	ma-	.	.
.	.	.	.	.	.	4f\	.
*	*	*Xlig	*	*	*	*	*
2C/	tu-	1c	-nus	2c\	-nus	2e/	.
1F\	-ę	.	.	1A\	.	2c/	tu-
=42-	=42-	=42-	=42-	=42-	=42-	=42-	=42-
*	*	*lig	*	*	*	*	*
.	.	1A	tu-	.	.	1f	-ę
4E\	.	.	.	4G/	tu-	.	.
4D\	.	.	.	4F/	-ę	.	.
*	*	*custos:c	*	*	*	*	*
2C/	stil-	1c	.	1G	.	1e	.
2C/	-la-	.	.	.	.	.	.
*	*	*Xlig	*	*	*	*	*
!	!	!LO:PB:g=original	!	!	!	!	!
=43-	=43-	=43-	=43-	=43-	=43-	=43-	=43-
1AA	.	1c	-e	1A	ſtil-	1e	ſtil-
0C	-ue-	1G	ſtil-	2E/	-la-	2c/	-la-
.	.	.	.	1c\	-ue-	1e\	-ue-
=44-	=44-	=44-	=44-	=44-	=44-	=44-	=44-
.	.	1E	-la-	.	.	.	.
.	.	.	.	4B\	.	4d/	.
.	.	.	.	4A\	.	4c/	.
*	*	*lig	*	*	*	*	*
2GG/	-runt	1G	-ue-	1B	-runt	4B/	.
.	.	.	.	.	.	4c/	.
*	*ij	*	*	*	*	*	*
2G\	stil-	.	.	.	.	4d/	.
.	.	.	.	.	.	4e/	.
=45-	=45-	=45-	=45-	=45-	=45-	=45-	=45-
2F\	.	1c	.	2A/	.	2f\	.
*	*	*	*	*	*ij	*	*
2E\	-la-	.	.	2G/	ſtil-	2g\	.
*	*	*Xlig	*	*	*	*	*
*	*	*	*	*custos:B	*	*	*
2F\	-ue-	1d	-ru(n)t	2A/	-la-	2f\	.
!	!	!	!	!LO:LB:g=original	!	!	!
2G\	.	.	.	2B\	-ue-	2d/	.
=46-	=46-	=46-	=46-	=46-	=46-	=46-	=46-
2C/	.	1c	.	1G	-runt	2e/	-runt
*	*	*	*	*	*Xij	*	*
1C	-runt	.	.	.	.	1e	.
*	*Xij	*	*	*	*	*	*
.	.	1c	mijr-	2.G/	mijr-	.	.
4BB/	mijr-	.	.	.	.	4d/	mijr-
*custos:GG	*	*	*	*	*	*custos:d	*
4AA/	.	.	.	4A/	.	4c/	.
!LO:LB:g=original	!	!	!	!	!	!LO:LB:g=original	!
=47-	=47-	=47-	=47-	=47-	=47-	=47-	=47-
4GG/	.	1B	.	4B\	.	2.d/	.
4AA/	.	.	.	4c\	.	.	.
4BB/	.	.	.	1d	.	.	.
4C/	.	.	.	.	.	4e\	.
2D/	.	1A	.	.	.	2f\	.
2C/	.	.	.	2e\	.	1g\	.
=48-	=48-	=48-	=48-	=48-	=48-	=48-	=48-
*	*	*lig	*	*	*	*	*
1D	.	1A	-rham	2.d\	.	.	.
.	.	.	.	.	.	2f\	-rham
.	.	.	.	4c\	.	.	.
2GG/	-rham	1G	.	2B\	-rham	2g\	.
1C/	mel-	.	.	2c\	.	1e\	.
*	*	*Xlig	*	*	*	*	*
=49-	=49-	=49-	=49-	=49-	=49-	=49-	=49-
.	.	1G	mel-	2C/	mel-	.	.
2BB/	.	.	.	2D/	-li-	2.d/	.
*	*	*lig	*	*	*	*	*
1AA	-li-	1c	-li	2E/	-flu-	.	.
.	.	.	.	.	.	4c/	mel-
.	.	.	.	2F/	-i	1c\	-li-
=50-	=50-	=50-	=50-	=50-	=50-	=50-	=50-
1GG	-flu-	1d	.	2D/	.	.	.
*	*	*	*	*	*ij	*	*
.	.	.	.	2.G/	mijr-	2B/	.
*	*	*Xlig	*	*	*	*	*
1AA	-i	1c	.	.	.	1A	-flu-
.	.	.	.	4F/	.	.	.
*	*	*	*	*custos:E	*	*	*
.	.	.	.	1F/	.	.	.
!	!	!	!	!LO:PB:g=original	!	!	!
=51-	=51-	=51-	=51-	=51-	=51-	=51-	=51-
*lig	*	*lig	*	*	*	*	*
1C	mel-	1c	flu-	.	.	2G/	-i
*	*	*	*	*	*	*	*ij
.	.	.	.	2E/	.	1g	mel-
1D	.	1A	.	2D/	-rham	.	.
.	.	.	.	2d\	mel-	2f\	-li-
*Xlig	*	*Xlig	*	*	*	*	*
=52-	=52-	=52-	=52-	=52-	=52-	=52-	=52-
*	*	*lig	*	*	*	*	*
2E\	-li-	1G	.	2c\	.	2e\	-flu-
1G	-flu-	.	.	2B/	.	4d/	.
.	.	.	.	.	.	4c/	.
*	*	*custos:A	*	*	*	*custos:B	*
.	.	1A	.	2A/	-li	0d	-i
*	*	*	*	*	*	*	*Xij
4F\	.	.	.	2D/	flu-	.	.
4E\	.	.	.	.	.	.	.
*	*	*Xlig	*	*	*	*	*
!	!	!LO:LB:g=original	!	!	!	!LO:PB:g=original	!
=53-	=53-	=53-	=53-	=53-	=53-	=53-	=53-
*	*	*lig	*	*	*	*	*
1F	.	1A	-i	1D	-i	.	.
*	*	*	*	*	*Xij	*	*
*custos:GG	*	*	*	*	*	*	*
2G\	-i	1G	.	1r	.	2B/	mel-
!LO:LB:g=original	!	!	!	!	!	!	!
2GG/	fa-	.	.	.	.	2d/	.
*	*	*Xlig	*	*	*	*	*
=54-	=54-	=54-	=54-	=54-	=54-	=54-	=54-
*	*	*lig	*	*	*	*	*
2C/	-cti	1G	fa-	2r	.	2e/	-li-
2BB/	.	.	.	2D/	fa-	2d/	-flu-
2AA/	ſunt	1A	.	2E/	-cti	2c/	-i
*	*ij	*	*	*	*	*	*
2D/	fa-	.	.	2F/	ſunt	2d/	fa-
*	*	*Xlig	*	*	*	*	*
=55-	=55-	=55-	=55-	=55-	=55-	=55-	=55-
1.C	-cti	0c	.	2.G/	cae-	1.e	-cti
.	.	.	.	4F/	.	.	.
.	.	.	.	4E/	.	.	.
.	.	.	.	4F/	.	.	.
2BB/	ſunt	.	.	2G/	.	2d/	ſunt
*	*Xij	*	*	*	*	*	*
=56-	=56-	=56-	=56-	=56-	=56-	=56-	=56-
2AA/	.	1e	.	2A/	.	2.c/	.
2C/	coe-	.	.	1G	.	.	.
.	.	.	.	.	.	4B/	coe-
1D	.	1d	.	.	.	1A	.
*	*	*	*	*custos:G	*	*	*
.	.	.	.	2F/	.	.	.
!	!	!	!	!LO:LB:g=original	!	!	!
=57-	=57-	=57-	=57-	=57-	=57-	=57-	=57-
*	*	*lig	*	*	*	*	*
1GG	-li	1B	.	2.G/	.	2G/	-li
.	.	.	.	.	.	2d/	fa-
.	.	.	.	4F/	.	.	.
2r	.	1c	.	1E	.	2e\	.
2C/	fa-	.	.	.	.	1g\	-cti
*	*	*Xlig	*	*	*	*	*
=58-	=58-	=58-	=58-	=58-	=58-	=58-	=58-
*	*	*lig	*	*	*	*	*
1D	.	1A	-cti	2D/	-li	.	.
*	*	*	*	*	*ij	*	*
.	.	.	.	2.d\	fa-	2f\	Su(n)t
*	*	*	*	*	*	*lig	*
2E\	-cti	1G	.	.	.	1e	coe-
.	.	.	.	4c\	.	.	.
2C/	ſ(u)nt	.	.	1c\	-cti	.	.
*	*	*Xlig	*	*	*	*	*
=59-	=59-	=59-	=59-	=59-	=59-	=59-	=59-
1G	.	1G	ſu(n)t	.	.	1d	.
.	.	.	.	2B\	ſunt	.	.
*	*	*lig	*	*	*	*Xlig	*
2C/	coe-	1c	cae-	1c	cae-	1e	-li
1c\	-li	.	.	.	.	.	.
=60-	=60-	=60-	=60-	=60-	=60-	=60-	=60-
*	*	*	*	*	*	*custos:g	*
.	.	1d	.	1G	-li	2r	.
*	*	*	*	*	*Xij	*	*ij
!	!	!	!	!	!	!LO:LB:g=original	!
2B\	.	.	.	.	.	1g	fa-
*	*ij	*Xlig	*	*	*	*	*
*custos:G	*	*	*	*	*	*	*
1c	ſ(u)nt	1e	.	2r	.	.	.
.	.	.	.	1c\	fa-	2e\	-cti
!LO:PB:g=original	!	!	!	!	!	!	!
=61-	=61-	=61-	=61-	=61-	=61-	=61-	=61-
1G	coe-	1d	.	.	.	1g	Su(n)t
.	.	.	.	2B\	-cti	.	.
2C/	-li	1c	.	1c	.	1e	coe-
*	*Xij	*	*	*	*	*	*
1C/	fac-	.	.	.	.	.	.
=62-	=62-	=62-	=62-	=62-	=62-	=62-	=62-
*	*	*lig	*	*	*	*	*
.	.	1d	-li	1G	ſunt	2d/	-li
*	*	*	*	*	*	*	*Xij
2BB/	-ti	.	.	.	.	2.g\	coe-
1C	sunt	1c	.	2C/	cae-	.	.
.	.	.	.	.	.	4f\	.
.	.	.	.	1c\	-li	1e\	.
*	*	*Xlig	*	*	*	*	*
=63-	=63-	=63-	=63-	=63-	=63-	=63-	=63-
1C	coe-	1G	dum	.	.	.	.
.	.	.	.	4B/	du(m)	4d/	.
.	.	.	.	4A/	.	4c/	.
2GG/	-li	1G	ma-	1B	.	2d/	-li
2G\	du(m)	.	.	.	.	2d/	dum
=64-	=64-	=64-	=64-	=64-	=64-	=64-	=64-
*	*	*lig	*	*	*	*	*
*	*	*	*	*custos:G	*	*	*
2F\	ma-	1c	.	2A/	.	2f\	.
!	!	!	!	!LO:LB:g=original	!	!	!
2E/	-nu	.	.	2G/	ma-	2g\	ma-
*	*	*custos:c	*	*	*	*	*
2F\	do-	1d	.	2A/	-nu	2f\	.
2G\	-mi-	.	.	2B/	.	2d/	-nu
*	*	*Xlig	*	*	*	*	*
!	!	!LO:LB:g=original	!	!	!	!	!
=65-	=65-	=65-	=65-	=65-	=65-	=65-	=65-
2C/	-ni	1c	-nu	2G/	do-	2e\	do-
*	*ij	*	*	*	*	*	*
2F\	du(m)	.	.	2A/	-mi-	2f\	-mi-
*	*	*lig	*	*	*	*	*
2E/	ma-	1c	do-	2G/	-ni	2g\	-ni
*	*	*	*	*	*ij	*	*ij
*	*	*	*	*	*	*custos:g	*
2F\	-nu	.	.	2F/	du(m)	2a\	do-
!	!	!	!	!	!	!LO:LB:g=original	!
=66-	=66-	=66-	=66-	=66-	=66-	=66-	=66-
!	!	!LO:TX:t=P:problem=wysokość poprawiona	!	!	!	!	!
4C/	do-	1e	.	2G/	ma-	1.g	.
4D/	.	.	.	.	.	.	.
4E/	-mi-	.	.	1c	.	.	.
*custos:G	*	*	*	*	*	*	*
4F\	.	.	.	.	.	.	.
*	*	*Xlig	*	*	*	*	*
!LO:LB:g=original	!	!	!	!	!	!	!
2G\	-ni	1d	.	.	.	.	.
*	*Xij	*	*	*	*	*	*
2GG/	fa-	.	.	2B\	-nu	2g\	-mi-
=67-	=67-	=67-	=67-	=67-	=67-	=67-	=67-
*	*	*lig	*	*	*	*	*
2AA/	-bri-	1c	.	2A/	do-	1e	-ni
*	*	*	*	*	*	*	*Xij
1C	-ca-	.	.	2G/	-mi-	.	.
.	.	1d	.	1G	-ni	2r	.
2BB/	.	.	.	.	.	2d/	fa-
*	*	*Xlig	*	*	*Xij	*	*
=68-	=68-	=68-	=68-	=68-	=68-	=68-	=68-
2.C/	.	1c	-mi-	2r	.	2e\	-bri-
.	.	.	.	2G/	fa-	2g\	-ca-
4BB/	.	.	.	.	.	.	.
2AA/	.	1c	-ni	2A/	-bri-	2.f\	-ta
2FF/	-ta	.	.	1c\	-ca-	.	.
.	.	.	.	.	.	4e\	.
=69-	=69-	=69-	=69-	=69-	=69-	=69-	=69-
1GG	es	1G	fa-	.	.	1d	es
.	.	.	.	2B\	.	.	.
1r	.	1A	-bri-	2.c\	.	2c/	.
*	*	*	*	*	*	*	*ij
.	.	.	.	.	.	2e\	fa-
*	*	*	*	*custos:A	*	*	*
.	.	.	.	4B\	.	.	.
!	!	!	!	!LO:LB:g=original	!	!	!
=70-	=70-	=70-	=70-	=70-	=70-	=70-	=70-
*	*	*lig	*	*	*	*	*
1r	.	1c	-ca-	2A/	.	2e\	-bri-
.	.	.	.	2F/	-ta	2f\	-ca-
2r	.	1B	.	1.G	es	1d	-ta
*	*ij	*	*	*	*	*	*
2G\	fa-	.	.	.	.	.	.
*	*	*Xlig	*	*	*	*	*
=71-	=71-	=71-	=71-	=71-	=71-	=71-	=71-
2E/	-bri-	1c	.	.	.	2e\	es
*	*	*	*	*	*ij	*	*
1F	-ca-	.	.	2A/	fa-	2c/	fa-
*	*	*lig	*	*	*	*	*
.	.	1A	-ta	2D/	-bri-	2f\	-bri-
*	*	*	*	*	*	*custos:e	*
2D/	.	.	.	2.d\	-ca-	2f\	-ca-
!	!	!	!	!	!	!LO:LB:g=original	!
=72-	=72-	=72-	=72-	=72-	=72-	=72-	=72-
*	*	*	*	*	*	*lig	*
2E/	.	1G	.	.	.	1e	-ta
.	.	.	.	4c\	.	.	.
2C/	.	.	.	1c	-ta	.	.
*	*	*Xlig	*	*	*	*	*
1G	-ta	1G	es	.	.	1d	.
.	.	.	.	2B/	.	.	.
*	*	*	*	*	*	*Xlig	*
=73-	=73-	=73-	=73-	=73-	=73-	=73-	=73-
*	*	*lig	*	*	*	*	*
1C	es	1G	ma-	0c	es	2c/	es
*	*Xij	*	*	*	*Xij	*	*Xij
.	.	.	.	.	.	1e	ma-
1r	.	1A	.	.	.	.	.
.	.	.	.	.	.	2f\	-ter
*	*	*Xlig	*	*	*	*	*
=74-	=74-	=74-	=74-	=74-	=74-	=74-	=74-
*lig	*	*	*	*	*	*	*
*	*	*custos:G	*	*	*	*	*
1C	ma-	1G	.	2r	.	2.g\	.
.	.	.	.	1c	ma-	.	.
.	.	.	.	.	.	4f\	tan-
*	*	*lig	*	*	*	*	*
*custos:F	*	*	*	*	*	*	*
!	!	!LO:LB:g=original	!	!	!	!	!
1G	.	1G	-ter	.	.	2d/	.
.	.	.	.	2B/	.	2e\	-ti
*Xlig	*	*	*	*	*	*	*
!LO:LB:g=original	!	!	!	!	!	!	!
=75-	=75-	=75-	=75-	=75-	=75-	=75-	=75-
2F\	-ter	1d	.	1A	-ter	4f\	de-
.	.	.	.	.	.	4g\	.
2D/	tan-	.	.	.	.	4a\	.
.	.	.	.	.	.	4f\	-i
*	*	*Xlig	*	*	*	*	*
2E\	.	1c	tan-	2G/	tan-	2g\	.
2F\	-ti	.	.	2A/	-ti	2f\	ma-
=76-	=76-	=76-	=76-	=76-	=76-	=76-	=76-
*	*	*lig	*	*	*	*	*
2G\	.	1B	-ti	2B/	.	2d/	.
*	*	*	*	*custos:A	*	*	*
1E	.	.	.	1G	.	1e	-ter
.	.	1c	.	.	.	.	.
!	!	!	!	!LO:PB:g=original	!	!	!
1F\	de-	.	.	1A\	de-	2c/	tan-
*	*	*Xlig	*	*	*	*	*
=77-	=77-	=77-	=77-	=77-	=77-	=77-	=77-
*	*	*lig	*	*	*	*	*
.	.	1A	De-	.	.	1f	-ti
4E/	.	.	.	4G/	.	.	.
4D/	.	.	.	4F/	.	.	.
*	*	*	*	*	*	*custos:c	*
1C	-i	1e	.	0G	-i	2e\	de-
!	!	!	!	!	!	!LO:PB:g=original	!
.	.	.	.	.	.	1c\	-i
*	*	*Xlig	*	*	*	*	*
=78-	=78-	=78-	=78-	=78-	=78-	=78-	=78-
2r	.	1d	.	.	.	.	.
*	*	*	*	*	*	*	*ij
2G\	tan-	.	.	.	.	2B/	ma-
2E\	-ti	1c	.	2r	.	2c/	-ter
*	*	*	*	*	*ij	*	*
1F\	de-	.	.	2c\	tan-	1f\	tan-
=79-	=79-	=79-	=79-	=79-	=79-	=79-	=79-
*	*	*lig	*	*	*	*	*
.	.	1d	.	2A/	-ti	.	.
2G\	.	.	.	2B/	de-	2d/	-ti
0C	-i	1c	.	1c	.	1.e	de-
*	*	*Xlig	*	*	*	*	*
=80-	=80-	=80-	=80-	=80-	=80-	=80-	=80-
.	.	1c	-i	2G/	-i	.	.
*	*	*	*	*	*Xij	*	*
.	.	.	.	1c	Hal-	4d/	.
.	.	.	.	.	.	4c/	.
2r	.	1G	.	.	.	1d	.
2G\	Hal-	.	.	2B/	-le-	.	.
=81-	=81-	=81-	=81-	=81-	=81-	=81-	=81-
*	*	*lig	*	*	*	*	*
2E\	-le-	1c	Hal-	2c/	-lu-	2c/	-i
*	*	*	*	*	*	*	*Xij
2F\	-lu-	.	.	2A/	.	2f\	hal-
*custos:E	*	*	*	*	*	*	*
2G\	-ia	1B	.	2B/	.	2d/	-le-
!LO:LB:g=original	!	!	!	!	!	!	!
2E/	.	.	.	2G/	-ia	2.e\	.
*	*	*Xlig	*	*	*	*	*
=82-	=82-	=82-	=82-	=82-	=82-	=82-	=82-
*	*	*lig	*	*	*	*	*
2C/	.	1A	-le	2r	.	.	.
.	.	.	.	.	.	4c/	-lu-
*	*	*	*	*	*ij	*	*
2D/	.	.	.	2d\	Hal-	2.f\	.
*	*ij	*	*	*	*	*	*
2E/	Hal-	1G	.	2B/	.	.	.
.	.	.	.	.	.	4e\	.
2C/	.	.	.	1c\	-le-	1e\	.
*	*	*Xlig	*	*	*	*	*
=83-	=83-	=83-	=83-	=83-	=83-	=83-	=83-
*	*	*lig	*	*	*	*	*
2AA/	-le-	1F	.	.	.	.	.
*	*	*	*	*custos:A	*	*custos:e	*
2BB/	.	.	.	2B/	.	2d/	.
!	!	!	!	!LO:LB:g=original	!	!LO:LB:g=original	!
2C/	.	1A	.	2A/	.	0.e	-ia
2AA/	.	.	.	2c\	.	.	.
*	*	*Xlig	*	*	*	*	*
=84-	=84-	=84-	=84-	=84-	=84-	=84-	=84-
*	*	*lig	*	*	*	*	*
1E	-lu-	1G	.	1B	-lu-	.	.
2AA/	-ia	1c	.	2A/	-ia	.	.
*	*Xij	*	*	*	*Xij	*	*
2A\	.	.	.	1c\	hal-	.	.
*	*	*Xlig	*	*	*	*	*
=85-	=85-	=85-	=85-	=85-	=85-	=85-	=85-
*	*	*lig	*	*	*	*	*
2F\	Hal-	1d	.	.	.	1r	.
2G\	-le-	.	.	2B\	-le-	.	.
*	*	*custos:A	*	*	*	*	*
2E\	-lu-	1c	.	4c\	-lu-	2r	.
.	.	.	.	4B\	.	.	.
1F\	-ia	.	.	4A/	.	2c/	Hal-
.	.	.	.	4G/	.	.	.
*	*	*Xlig	*	*	*	*	*
!	!	!LO:PB:g=original	!	!	!	!	!
=86-	=86-	=86-	=86-	=86-	=86-	=86-	=86-
*	*	*lig	*	*	*	*	*
.	.	1A	.	2.F/	.	2d/	.
4E\	.	.	.	.	.	1f	-le-
4D/	.	.	.	4G/	.	.	.
1.C	.	1c	.	4A/	.	.	.
.	.	.	.	4B/	.	.	.
.	.	.	.	1c\	.	4e\	-lu-
.	.	.	.	.	.	4d\	.
*	*	*Xlig	*	*	*	*	*
=87-	=87-	=87-	=87-	=87-	=87-	=87-	=87-
*	*	*lig	*	*	*	*	*
.	.	1G	.	.	.	4e\	.
.	.	.	.	.	.	4f\	.
*custos:D	*	*	*	*	*	*	*
2E/	.	.	.	4B\	.	1g	.
.	.	.	.	4c\	.	.	.
!LO:PB:g=original	!	!	!	!	!	!	!
1D	.	1A	.	1d	.	.	.
.	.	.	.	.	.	2f\	-ia
=88-	=88-	=88-	=88-	=88-	=88-	=88-	=88-
2GG/	.	1G	.	1B	-ia	0g	.
*	*ij	*	*	*	*	*	*
1G	Hal-	.	.	.	.	.	.
*	*	*Xlig	*	*	*	*	*
*	*	*	*	*custos:c	*	*	*
.	.	[1Gl\;;	.	2r	.	.	.
*	*	*	*	*	*ij	*	*
!	!	!	!	!LO:LB:g=original	!	!	!
2E/	-le-	.	.	1c\	hal-	.	.
=89-	=89-	=89-	=89-	=89-	=89-	=89-	=89-
1G	-lu-	0G_	.	.	.	2r	.
.	.	.	.	2B\	-le-	1g	.
2C/	-ia	.	.	1c	-lu-	.	.
1C/	Hal-	.	.	.	.	2e\	hal-
=90-	=90-	=90-	=90-	=90-	=90-	=90-	=90-
.	.	0G_	.	2G/	-ia	1g	.
2BB/	-le-	.	.	2d\	hal-	.	.
1C	-lu-	.	.	2e\	-le-	2c/	-le-
.	.	.	.	1c\	-lu-	1e\	-lu-
=91-	=91-	=91-	=91-	=91-	=91-	=91-	=91-
0GGl;	-ia	0G]	.	.	.	.	.
.	.	.	.	4B/	.	4d/	.
.	.	.	.	4A/	.	4c/	-ia
.	.	.	.	1Bl;;	-ia	1dl;;	.
*	*Xij	*	*	*	*Xij	*	*
==	==	==	==	==	==	==	==
*-	*-	*-	*-	*-	*-	*-	*-
!!!system-decoration: [(*)]
!!!RDF**kern: < = below
!!!RDF**kern: l = terminal long
!!!ENC: Mateusz Solarz
!!!END: 2022-03-04
!!!ENC: Andrzej Kubiczek
!!!END: 2022-03-18
